coreui/free/cil-group.svg

<svg xmlns="http://www.w3.org/2000/svg" viewBox="0 0 512 512">
  <path fill="var(--ci-primary-color, currentColor)" d="M462.541,316.3l-64.344-42.1,24.774-45.418A79.124,79.124,0,0,0,432.093,192V120A103.941,103.941,0,0,0,257.484,43.523L279.232,67a71.989,71.989,0,0,1,120.861,53v72a46.809,46.809,0,0,1-5.215,21.452L355.962,284.8l89.058,58.274a42.16,42.16,0,0,1,19.073,35.421V432h-72v32h104V378.494A74.061,74.061,0,0,0,462.541,316.3Z" class="ci-primary"/>
  <path fill="var(--ci-primary-color, currentColor)" d="M318.541,348.3l-64.343-42.1,24.773-45.418A79.124,79.124,0,0,0,288.093,224V152A104.212,104.212,0,0,0,184.04,47.866C126.723,47.866,80.093,94.581,80.093,152v72a78,78,0,0,0,9.015,36.775l24.908,45.664L50.047,348.3A74.022,74.022,0,0,0,16.5,410.4L16,496H352.093V410.494A74.061,74.061,0,0,0,318.541,348.3ZM320.093,464H48.186l.31-53.506a42.158,42.158,0,0,1,19.073-35.421l88.682-58.029L117.2,245.452A46.838,46.838,0,0,1,112.093,224V152a72,72,0,1,1,144,0v72a46.809,46.809,0,0,1-5.215,21.452L211.962,316.8l89.058,58.274a42.16,42.16,0,0,1,19.073,35.421Z" class="ci-primary"/>
</svg>

<svg viewBox="0 0 512 512" xmlns="http://www.w3.org/2000/svg"><g><path d="M462.541 316.3l-64.344-42.1 24.774-45.42v-.001c5.97-11.35 9.1-23.97 9.12-36.79v-72l0 0c.14-57.41-46.29-104.06-103.69-104.2 -26.3-.07-51.65 9.84-70.93 27.71l21.74 23.47v0c29.19-27 74.73-25.21 101.72 3.98 12.33 13.33 19.16 30.84 19.13 49.01v72h0c-.01 7.46-1.8 14.81-5.22 21.45l-38.92 71.34 89.05 58.274v0c11.94 7.81 19.12 21.14 19.07 35.42v53.5h-72v32h104v-85.51 0c.06-25.08-12.57-48.48-33.56-62.2Z"/><path d="M318.541 348.3l-64.35-42.1 24.77-45.42v0c5.97-11.35 9.1-23.97 9.12-36.79v-72 0c-.05-57.47-46.6-104.05-104.06-104.14 -57.32 0-103.95 46.71-103.95 104.13v72h0c-.07 12.81 3.03 25.44 9.01 36.77l24.908 45.66 -63.97 41.86h0c-20.97 13.69-33.59 37.05-33.55 62.1l-.5 85.6h336.09v-85.51 0c.06-25.08-12.57-48.48-33.56-62.2Zm1.55 115.7H48.18l.31-53.51 -.001 0c-.05-14.28 7.12-27.61 19.07-35.43l88.68-58.03 -39.06-71.6 -.001-.001c-3.39-6.65-5.14-14-5.11-21.46v-72l-.001 0c-.01-39.77 32.23-72 72-72 39.76-.01 72 32.23 72 72 0 0 0 0 0 0v72 -.001c-.01 7.46-1.8 14.81-5.22 21.45l-38.92 71.34 89.05 58.274h0c11.94 7.81 19.12 21.14 19.07 35.42Z"/></g></svg>
